!! 00000] TT[WS
!!!OTL: Zhong nangua
!!!ARE: Asia, China,ÿShanxi Zhuoquan
!! Ethnic Group: Han
!! WI, 61 (1)
!!!SCT: J0069
!!!YEM: Copyright 1995, estate of Helmut Schaffrath.
**kern
*ICvox
*Ivox
*M2/4
*k[f#]
*G:
{8dd
16dd
16ee
8dd
8a
=1
8dd
8ee
4dd
=2
8b
4dd
8ee
=3
8dd
8b
4a}
=4
{8e
4g
8a
=5
8dd
8ee
4dd
=6
4dd
8e
8g
=7
8a
8b
8f#
8e
=8
2d}
=9
{8b
8a
8b
8dd
=10
8a
8g
4d
=11
8.g
16g
8e
8g
=12
8a
8g
4a}
=13
{8e
4g
8a
=14
8dd
8ee
4dd
=15
4dd
8e
8g
=16
8a
8b
8f#
8e
=17
2d}
==
!!!AGN: Xiaodiao. Laodong, Zhongzhi
!!!ONB: ESAC (Essen Associative Code) Database: CHINA
!!!AMT: simple duple
!!!AIN: vox
!!!EED: Helmut Schaffrath
!!!EEV: 1.0
*-
